usr/share/oma-welcome/images/java.svg

<?xml version="1.0" encoding="UTF-8" standalone="no"?>
<!-- Created with Inkscape (http://www.inkscape.org/) -->

<svg
   xmlns:dc="http://purl.org/dc/elements/1.1/"
   xmlns:cc="http://creativecommons.org/ns#"
   xmlns:rdf="http://www.w3.org/1999/02/22-rdf-syntax-ns#"
   xmlns:svg="http://www.w3.org/2000/svg"
   xmlns="http://www.w3.org/2000/svg"
   xmlns:sodipodi="http://sodipodi.sourceforge.net/DTD/sodipodi-0.dtd"
   xmlns:inkscape="http://www.inkscape.org/namespaces/inkscape"
   width="229.24536"
   height="310.88089"
   id="svg1968"
   sodipodi:version="0.32"
   inkscape:version="0.92.4 5da689c313, 2019-01-14"
   version="1.0"
   sodipodi:docname="java.svg">
  <defs
     id="defs1970" />
  <sodipodi:namedview
     id="base"
     pagecolor="#ffffff"
     bordercolor="#666666"
     borderopacity="1.0"
     inkscape:pageopacity="0.0"
     inkscape:pageshadow="2"
     inkscape:zoom="0.7974098"
     inkscape:cx="114.95728"
     inkscape:cy="80.760819"
     inkscape:document-units="px"
     inkscape:current-layer="_198302696"
     width="68.51mm"
     height="129.89mm"
     units="mm"
     inkscape:window-width="904"
     inkscape:window-height="574"
     inkscape:window-x="56"
     inkscape:window-y="28"
     showgrid="false"
     inkscape:window-maximized="0"
     fit-margin-top="0"
     fit-margin-left="0"
     fit-margin-right="0"
     fit-margin-bottom="0" />
  <metadata
     id="metadata1973">
    <rdf:RDF>
      <cc:Work
         rdf:about="">
        <dc:format>image/svg+xml</dc:format>
        <dc:type
           rdf:resource="http://purl.org/dc/dcmitype/StillImage" />
        <dc:title></dc:title>
      </cc:Work>
    </rdf:RDF>
  </metadata>
  <g
     inkscape:label="Ebene 1"
     inkscape:groupmode="layer"
     id="layer1"
     transform="translate(3818.1373,782.89391)">
    <g
       id="Ebene_x0020_1"
       transform="translate(-3826.724,-785.8793)">
      <metadata
         id="CorelCorpID_0Corel-Layer" />
      <g
         id="_198302696">
        <path
           d="m 82.6262,243.321 c 0,0 -11.9391,7.2672 8.30525,9.34351 24.3967,3.11437 37.3741,2.59576 64.3663,-2.59534 0,0 7.2672,4.67165 17.1297,8.30546 -60.7327,25.9542 -137.557,-1.5577 -89.8013,-15.0536 z m -7.78643,-33.7402 c 0,0 -12.9769,9.86233 7.2672,11.9386 26.4735,2.59576 47.2368,3.11437 83.0534,-4.15263 0,0 4.67186,5.19089 12.4579,7.78643 -73.1906,21.8016 -155.206,2.07631 -102.778,-15.5725 z m 143.267,59.1754 c 0,0 8.82449,7.26741 -9.86254,12.9769 -34.7787,10.3818 -145.863,13.4961 -177.008,0 -10.9006,-4.67144 9.86275,-11.4198 16.6105,-12.4579 6.74817,-1.55708 10.3816,-1.55708 10.3816,-1.55708 -11.9384,-8.30546 -79.4195,17.1295 -34.2595,24.3967 124.061,20.2443 226.321,-8.82428 194.137,-23.3587 z M 88.33577,174.283 c 0,0 -56.5799,13.4961 -20.2439,18.1678 15.5725,2.0761 46.1983,1.5575 74.7481,-0.51903 23.3585,-2.07631 46.7176,-6.22894 46.7176,-6.22894 0,0 -8.30546,3.63339 -14.0156,7.26741 -57.6179,15.053 -168.183,8.30504 -136.519,-7.26741 26.9923,-12.9773 49.3125,-11.4198 49.3125,-11.4198 z m 101.222,56.5799 c 58.1372,-30.1069 31.1451,-59.1754 12.4579,-55.5416 -4.67186,1.03805 -6.74817,2.07631 -6.74817,2.07631 0,0 1.55729,-3.11457 5.19068,-4.15263 36.8552,-12.9773 65.9238,38.9309 -11.9384,59.1752 0,0 0.51861,-0.51903 1.03805,-1.55729 z m -95.5117,82.0153 c 56.0613,3.63381 141.71,-2.07631 143.786,-28.5494 0,0 -4.15242,10.3818 -46.1981,18.1676 -47.7558,8.8247 -106.931,7.78643 -141.71,2.07631 0,0 7.26699,6.22915 44.122,8.30546 z"
           id="_227268128"
           style="fill:#4e7896"
           inkscape:connector-curvature="0" />
        <path
           d="m 154.26,2.98539 c 0,0 32.1832,32.7022 -30.6261,82.0153 -50.3512,39.9692 -11.4198,62.8088 0,88.7629 -29.5878,-26.4728 -50.8702,-49.8319 -36.336,-71.6335 21.2828,-32.1832 79.939,-47.7554 66.9621,-99.1446 z m -16.6105,148.977 c 15.053,17.1299 -4.15283,32.7026 -4.15283,32.7026 0,0 38.4121,-19.7253 20.7633,-44.1224 -16.0919,-23.3585 -28.5498,-34.7783 38.9311,-73.7098 0,0 -106.412,26.4735 -55.5416,85.1297 z"
           id="_230367536"
           style="fill:#f58219"
           inkscape:connector-curvature="0"
           sodipodi:nodetypes="cccccccccccc" />
      </g>
    </g>
  </g>
</svg>

<?xml version="1.0" encoding="UTF-8" standalone="no"?>
<!-- Created with Inkscape (http://www.inkscape.org/) -->
<svg xmlns:dc="http://purl.org/dc/elements/1.1/" xmlns:cc="http://web.resource.org/cc/" xmlns:rdf="http://www.w3.org/1999/02/22-rdf-syntax-ns#" xmlns:svg="http://www.w3.org/2000/svg" xmlns="http://www.w3.org/2000/svg" xmlns:sodipodi="http://sodipodi.sourceforge.net/DTD/sodipodi-0.dtd" xmlns:inkscape="http://www.inkscape.org/namespaces/inkscape" width="242.75197" height="460.24014" id="svg1968" sodipodi:version="0.32" inkscape:version="0.44" version="1.0" sodipodi:docbase="C:\Dokumente und Einstellungen\Andreas\Eigene Dateien\Eigene Bilder\sonstiges\Logos\Vektor\Computer, Electronics" sodipodi:docname="Java.svg">
  <defs id="defs1970"/>
  <sodipodi:namedview id="base" pagecolor="#ffffff" bordercolor="#666666" borderopacity="1.0" inkscape:pageopacity="0.0" inkscape:pageshadow="2" inkscape:zoom="0.35" inkscape:cx="350" inkscape:cy="205.14359" inkscape:document-units="px" inkscape:current-layer="layer1" width="68.51mm" height="129.89mm" units="mm" inkscape:window-width="904" inkscape:window-height="574" inkscape:window-x="56" inkscape:window-y="28"/>
  <metadata id="metadata1973">
    <rdf:RDF>
      <cc:Work rdf:about="">
        <dc:format>image/svg+xml</dc:format>
        <dc:type rdf:resource="http://purl.org/dc/dcmitype/StillImage"/>
      </cc:Work>
    </rdf:RDF>
  </metadata>
  <g inkscape:label="Ebene 1" inkscape:groupmode="layer" id="layer1" transform="translate(3824.556,782.8939)">
    <g id="Ebene_x0020_1" transform="translate(-3826.724,-785.8793)">
  <metadata id="CorelCorpID_0Corel-Layer"/>

  <g id="_198302696">
   <path d="M 82.6262,243.321 C 82.6262,243.321 70.6871,250.5882 90.93145,252.66451 C 115.32815,255.77888 128.30555,255.26027 155.29775,250.06917 C 155.29775,250.06917 162.56495,254.74082 172.42745,258.37463 C 111.69475,284.32883 34.87045,256.81693 82.62615,243.32103 L 82.6262,243.321 z M 74.83977,209.5808 C 74.83977,209.5808 61.86287,219.44313 82.10697,221.5194 C 108.58047,224.11516 129.34377,224.63377 165.16037,217.36677 C 165.16037,217.36677 169.83223,222.55766 177.61827,225.1532 C 104.42767,246.9548 22.41227,227.22951 74.84027,209.5807 L 74.83977,209.5808 z M 218.10677,268.7562 C 218.10677,268.7562 226.93126,276.02361 208.24423,281.7331 C 173.46553,292.1149 62.38123,295.2292 31.23623,281.7331 C 20.33563,277.06166 41.09898,270.3133 47.84673,269.2752 C 54.5949,267.71812 58.22833,267.71812 58.22833,267.71812 C 46.28993,259.41266 -21.19117,284.84762 23.96883,292.11482 C 148.02983,312.35912 250.28983,283.29054 218.10583,268.75612 L 218.10677,268.7562 z M 88.33577,174.283 C 88.33577,174.283 31.75587,187.7791 68.09187,192.4508 C 83.66437,194.5269 114.29017,194.0083 142.83997,191.93177 C 166.19847,189.85546 189.55757,185.70283 189.55757,185.70283 C 189.55757,185.70283 181.25211,189.33622 175.54197,192.97024 C 117.92407,208.02324 7.35897,201.27528 39.02297,185.70283 C 66.01527,172.72553 88.33547,174.28303 88.33547,174.28303 L 88.33577,174.283 z M 189.55777,230.8629 C 247.69497,200.756 220.70287,171.6875 202.01567,175.3213 C 197.34381,176.35935 195.2675,177.39761 195.2675,177.39761 C 195.2675,177.39761 196.82479,174.28304 200.45818,173.24498 C 237.31338,160.26768 266.38198,212.17588 188.51978,232.42018 C 188.51978,232.42018 189.03839,231.90115 189.55783,230.86289 L 189.55777,230.8629 z M 94.04607,312.8782 C 150.10737,316.51201 235.75607,310.80189 237.83207,284.3288 C 237.83207,284.3288 233.67965,294.7106 191.63397,302.4964 C 143.87817,311.3211 84.70297,310.28283 49.92397,304.57271 C 49.92397,304.57271 57.19096,310.80186 94.04597,312.87817 L 94.04607,312.8782 z " id="_227268128" style="fill:#4e7896"/>

   <path d="M 154.26,2.98539 C 154.26,2.98539 186.4432,35.68759 123.6339,85.00069 C 73.2827,124.96989 112.2141,147.80949 123.6339,173.76359 C 94.0461,147.29079 72.7637,123.93169 87.2979,102.13009 C 108.5807,69.94689 167.2369,54.37469 154.26,2.98549 L 154.26,2.98539 z M 137.6495,151.96239 C 152.7025,169.09229 133.49667,184.66499 133.49667,184.66499 C 133.49667,184.66499 171.90877,164.93969 154.25997,140.54259 C 138.16807,117.18409 125.71017,105.76429 193.19107,66.83279 C 193.19107,66.83279 86.77907,93.30629 137.64947,151.96249 L 137.6495,151.96239 z M 99.2372,430.71039 L 99.2372,379.84019 C 99.2372,366.86269 91.97,358.03859 73.8018,358.03859 C 63.4202,358.03859 54.5957,360.63393 46.8093,363.74829 L 49.40506,373.0918 C 55.11476,371.01549 62.38196,368.93897 70.16836,368.93897 C 80.0309,368.93897 84.70256,373.0918 84.70256,381.39727 L 84.70256,388.14544 L 79.51188,388.14544 C 54.59568,388.14544 43.17588,397.48895 43.17588,412.54214 C 43.17588,425.00024 50.96211,432.26744 64.97748,432.26744 C 73.80176,432.26744 80.55018,428.11461 86.77908,422.92393 L 87.81734,430.71036 L 99.23714,430.71036 L 99.2372,430.71039 z M 84.7026,414.09949 C 79.51192,418.77114 73.8018,421.3669 68.6109,421.3669 C 61.86314,421.3669 57.7105,417.21427 57.7105,409.9471 C 57.7105,402.67969 61.86313,397.489 78.4738,397.489 L 84.70253,397.489 L 84.70253,414.0995 L 84.7026,414.09949 z M 148.0311,430.71039 L 129.8627,430.71039 L 108.0613,359.59569 L 123.634,359.59569 L 137.1301,403.19869 L 140.24447,416.17579 C 146.99264,397.48899 152.18377,378.28249 154.26007,359.59569 L 169.83257,359.59569 C 165.67994,382.95459 158.41297,408.38939 148.03117,430.71039 L 148.0311,430.71039 z M 232.1225,430.71039 L 232.1225,379.84019 C 232.1225,366.86269 224.8553,358.03859 206.6873,358.03859 C 196.3055,358.03859 187.4812,360.63393 179.6948,363.74829 L 181.77132,373.0918 C 188.00026,371.01549 195.26742,368.93897 203.05392,368.93897 C 212.91646,368.93897 217.58812,373.0918 217.58812,381.39727 L 217.58812,388.14544 L 212.39744,388.14544 C 187.48124,388.14544 176.06144,397.48895 176.06144,412.54214 C 176.06144,425.00024 183.32864,432.26744 197.34384,432.26744 C 206.68735,432.26744 213.43554,428.11461 219.66464,422.92393 L 220.7029,430.71036 L 232.1225,430.71036 L 232.1225,430.71039 z M 217.5881,414.09949 C 212.39742,418.77114 206.6873,421.3669 201.4962,421.3669 C 194.74844,421.3669 190.5958,417.21427 190.5958,409.9471 C 190.5958,402.67969 194.74843,397.489 211.3591,397.489 L 217.58804,397.489 L 217.58804,414.0995 L 217.5881,414.09949 z M 27.0841,442.64909 C 22.93147,448.87803 16.7023,453.55009 8.9165,456.14519 L 2.16812,447.83973 C 7.3588,444.72536 12.54992,440.05392 14.62602,435.90113 C 16.70233,432.26753 17.22178,427.07643 17.22178,415.13783 L 17.22178,334.16083 L 32.79428,334.16083 L 32.79428,414.09963 C 32.79428,430.19113 31.23699,436.42003 27.08416,442.64923 L 27.0841,442.64909 z " id="_230367536" style="fill:#f58219"/>

  </g>

 </g>
  </g>
</svg>
